!! 00010] TT[TB
!! Eigene Aufnahme
!!!OTL: Da gu la Tunl-a                                 (Name)
!!!ARE: Neimeng
!! Ethnic Group: Menggu
!! MM, S. 1246
!!!SCT: C0572
!!!YEM: Copyright 1995, estate of Helmut Schaffrath.
**kern
*ICvox
*Ivox
*M4/4
*k[]
*C:
{4.a
8a
4dd
4ee
=1
4e
8a
8g
8e
8g
4e}
=2
{8a
8ee
8ee
8dd
8cc
8cc
8dd
8gg
=3
1ee}
=4
{8a
8cc
8cc
8dd
8ee
8gg
4ee
=5
8.cc
16ee
8dd
8cc
4a
4a}
=6
{8cc
16dd
16ee
8a
8g
8e
8g
4cc
=7
1a}
==
!!!AGN: NN
!! Saenger: Chao Lun Batou, der das Buch nur zum Nachschlagen
!!    benutzte und ansonsten auswendig sang. Da er aus dem Osten der
!!    Neimeng kommt, kennt er nicht so viele Lieder des Westens.
!!    Alle Lieder wurden mit erkaelteter, halber Stimme in meinem
!!    Zimmer gesungen. FOTO VORHANDEN (DIAS)  31.3.87  VARIANTE
!!!ONB: ESAC (Essen Associative Code) Database: CHINA
!!!AMT: simple quadruple
!!!AIN: vox
!!!EED: Helmut Schaffrath
!!!EEV: 1.0
*-
